X:1
T:Claremont, HM
T:Claremont, HM
T:Lowell Mason, 1841, arr by William B. Bradbury 
T:Public Domain Courtesy of the Cyber Hymnal™
C:Lowell Mason, 1841, arr by William B. Bradbury
Z:Public Domain
Z:Courtesy of the Cyber Hymnal™
%%score ( 1 2 ) ( 3 4 )
L:1/8
Q:1/4=98
M:3/4
K:A
V:1 treble 
V:2 treble 
V:3 bass 
V:4 bass 
V:1
 [EA]2 | [Ec]3 [EA] [FB][EG] | [EA]4 E2 | [DF]3 [FA] [Fd][DF] | ([DF]2 [CE]2) E2 | %5
 [EG]3 E [EB][Ed] | [Ec]4 [Ec]2 | [^DB]3 [DA] [DF][B,D] | [B,E]4 E2 | z3 c (dc) | (c2 B2) E2 | %11
 z3 c (dc) | (c2 B2) A2 | z3 e (fe) | ([Ae]2 [Ec]2) A2 | (A2 c2) [EB]2 | [EA]4 |] %17
V:2
 x2 | x6 | x4 E2 | x6 | x4 E2 | x3 E x2 | x6 | x6 | x6 | E4 E2 | E4 x2 | E4 E2 | E4 x2 | A4 G2 | %14
 x4 (EF) | E4 x2 | x4 |] %17
V:3
 [A,,C]2 | [A,,E]3 [C,E] [D,D][E,B,] | [A,,C]4 [C,A,]2 | [D,A,]3 [D,A,] [D,A,][D,A,] | %4
 [A,,A,]4 [E,G,]2 | [E,B,]3 [E,G,] [E,G,][E,B,] | A,4 [A,,A,]2 | [B,,F,]3 [B,,F,] [B,,A,][B,,A,] | %8
 [E,G,]4 G,2 | z3 A, (B,A,) | (A,2 G,2) E,2 | z3 [A,C] ([B,D][A,C]) | (A,2 G,2) A,,2 | z3 C (DC) | %14
 (C2 A,2) A,2 | (C2 E2) [E,D]2 | [A,,C]4 |] %17
V:4
 x2 | x6 | x6 | x6 | x6 | x6 | A,4 x2 | x6 | x6 | E,4 E,2 | E,4 x2 | E,4 E,2 | E,4 x2 | A,,4 A,,2 | %14
 A,,4 (C,D,) | E,4 x2 | x4 |] %17

